X:711
T:Forbes Raeburn of Huntly
C:Joe Buchanan's Scottish Tome - Page 233.2
I:233 2
Z:Carl Allison
C:Graeme Mitchell
R:Reel
L:1/8
M:4/4
K:F
ag | "F"f3 g "C/F"fcAB | "F"c2 d2 "C/F"dcAc | "F"AAcd "C/F"cAGF | "Gm"DGGF "C7"G2 ag |
"F"f3 g "C/F"fcAB | "F"c2 d2 "A/F7"dcAc | "Bb"f2 df "A/F"cdcA | "C/C7"GFGA "F"F2 :|
(3EEE | "C7"EG G2 "E/C7"GB B2 | "F"A2 AB  "F#/D7"cA A2 | "G"^B2 Bc "Bb/G7"dBcd | "C7"e_e=eg "E/C7"c'bag |
"F"f3 g "E/C7"fcAB | "F"c2 d2 "C/F"dcAc | "Bb"f2 df "A/F"cdcA | "G/C7"GFGA "F"F2 |
